X: 2437
T: Ballinamore, The
R: reel
M: 4/4
K: Edorian
|:G2BG (3EFG AG|FDFA dAFD|G2BG EFGA|1 ~B2AF GEEF:|2 ~B2AF GEgf||
Beed efge|fede afdf|eB~B2 efge|fedf efgf|
eB~B2 efge|fedf afdf|eB~B2 eB~B2|ABdf edAF||

